app/client/src/assets/icons/blueprintjs/20px/delete.svg

<svg xmlns="http://www.w3.org/2000/svg" xml:space="preserve" viewBox="0 0 20 20"><path fill-rule="evenodd" d="M15 6a1.003 1.003 0 0 0-1.71-.71L10 8.59l-3.29-3.3a1.003 1.003 0 0 0-1.42 1.42L8.59 10 5.3 13.29c-.19.18-.3.43-.3.71a1.003 1.003 0 0 0 1.71.71l3.29-3.3 3.29 3.29c.18.19.43.3.71.3a1.003 1.003 0 0 0 .71-1.71L11.41 10l3.29-3.29c.19-.18.3-.43.3-.71zm-5-6C4.48 0 0 4.48 0 10s4.48 10 10 10 10-4.48 10-10S15.52 0 10 0zm0 18c-4.42 0-8-3.58-8-8s3.58-8 8-8 8 3.58 8 8-3.58 8-8 8z" clip-rule="evenodd"/></svg>

<?xml version="1.0" encoding="utf-8"?>
<!-- Generator: Adobe Illustrator 17.1.0, SVG Export Plug-In . SVG Version: 6.00 Build 0)  -->
<!DOCTYPE svg PUBLIC "-//W3C//DTD SVG 1.1//EN" "http://www.w3.org/Graphics/SVG/1.1/DTD/svg11.dtd">
<svg version="1.1" id="Layer_1" xmlns="http://www.w3.org/2000/svg" xmlns:xlink="http://www.w3.org/1999/xlink" x="0px" y="0px"
	 viewBox="0 0 20 20" enable-background="new 0 0 20 20" xml:space="preserve">
<g id="delete_2_">
	<g>
		<path fill-rule="evenodd" clip-rule="evenodd" d="M15,6c0-0.55-0.45-1-1-1c-0.28,0-0.53,0.11-0.71,0.29L10,8.59L6.71,5.29
			C6.53,5.11,6.28,5,6,5C5.45,5,5,5.45,5,6c0,0.28,0.11,0.53,0.29,0.71L8.59,10l-3.29,3.29C5.11,13.47,5,13.72,5,14
			c0,0.55,0.45,1,1,1c0.28,0,0.53-0.11,0.71-0.29L10,11.41l3.29,3.29C13.47,14.89,13.72,15,14,15c0.55,0,1-0.45,1-1
			c0-0.28-0.11-0.53-0.29-0.71L11.41,10l3.29-3.29C14.89,6.53,15,6.28,15,6z M10,0C4.48,0,0,4.48,0,10c0,5.52,4.48,10,10,10
			s10-4.48,10-10C20,4.48,15.52,0,10,0z M10,18c-4.42,0-8-3.58-8-8s3.58-8,8-8s8,3.58,8,8S14.42,18,10,18z"/>
	</g>
</g>
</svg>
